src/16/actions/playlist-automatic.svg

<svg xmlns="http://www.w3.org/2000/svg" width="16" height="16" viewBox="0 0 16 16">
 <defs>
  <style id="current-color-scheme" type="text/css">
   .ColorScheme-Text { color:#565656; } .ColorScheme-Highlight { color:#5294e2; }
  </style>
 </defs>
 <path style="fill:currentColor" class="ColorScheme-Text" d="M 1 1 L 1 3 L 15 3 L 15 1 L 1 1 z M 9 5 L 9 7 L 9 10 L 9 12 L 9 15 L 11 15 L 11 12 L 13 12 L 13 15 L 15 15 L 15 6 L 15 5 L 9 5 z M 1 5.0039062 L 1 7.0039062 L 7 7.0039062 L 7 5.0039062 L 1 5.0039062 z M 11 7 L 13 7 L 13 10 L 11 10 L 11 7 z M 1 9.0039062 L 1 11.003906 L 7 11.003906 L 7 9.0039062 L 1 9.0039062 z M 1 13 L 1 15 L 7 15 L 7 13 L 1 13 z"/>
</svg>

<svg xmlns="http://www.w3.org/2000/svg" width="16" height="16"><defs><style id="current-color-scheme" type="text/css"></style></defs><path d="M1 1v2h14V1H1zm8 4v10h2v-3h2v3h2V5H9zm-8 .004v2h6v-2H1zM11 7h2v3h-2V7zM1 9.004v2h6v-2H1zM1 13v2h6v-2H1z" fill="currentColor" color="#565656"/></svg>
